assets/img/kusama-logo-name.svg

<svg width="114" height="27" viewBox="0 0 114 27" fill="none" xmlns="http://www.w3.org/2000/svg">
<g clip-path="url(#clip0_178_799)">
<path d="M2.80558 26.9978C1.26142 26.9978 0 25.7037 0 24.1195V10.219C0 8.63483 1.26142 7.36304 2.80558 7.36304C4.34973 7.36304 5.61116 8.65715 5.61116 10.2413V24.1418C5.58941 25.7037 4.34973 26.9978 2.80558 26.9978Z" fill="#111212"/>
<path d="M14.6587 26.9978C13.8323 26.9978 13.0276 26.6185 12.5056 25.9714L6.85095 19.0323C5.981 17.9613 5.981 16.4218 6.85095 15.3508L12.5056 8.3894C13.506 7.16223 15.2677 7.00605 16.4421 8.0101C17.6165 9.01415 17.7905 10.8437 16.8118 12.0486L12.6578 17.1804L16.8118 22.2899C17.7905 23.5171 17.6383 25.3244 16.4421 26.3284C15.9419 26.7523 15.3112 26.9978 14.6587 26.9978Z" fill="#111212"/>
<path d="M33.2755 26.9978H21.4225C19.8784 26.9978 18.6169 25.7036 18.6169 24.1195V10.219C18.6169 8.63481 19.8784 7.3407 21.4225 7.3407C22.9667 7.3407 24.2281 8.63481 24.2281 10.219V21.2412H30.4917V10.219C30.4917 8.63481 31.7531 7.3407 33.2973 7.3407C34.8415 7.3407 36.1029 8.63481 36.1029 10.219V24.1195C36.0811 25.7036 34.8197 26.9978 33.2755 26.9978Z" fill="#111212"/>
<path d="M51.914 26.9978H40.0609C38.5168 26.9531 37.2989 25.6367 37.3424 24.0526C37.3859 22.5353 38.582 21.3082 40.0609 21.2635H49.1084V21.1074L39.278 18.2291C38.0818 17.8721 37.2554 16.7565 37.2554 15.4624V10.219C37.2554 8.63483 38.5168 7.36304 40.0609 7.36304H51.914C53.4581 7.36304 54.7195 8.65715 54.7195 10.2413C54.7195 11.8255 53.4581 13.1196 51.914 13.1196H42.8665V13.2981L52.6969 16.1764C53.8931 16.5334 54.7195 17.649 54.7195 18.9431V24.1418C54.7195 25.726 53.4581 26.9978 51.914 26.9978Z" fill="#111212"/>
<path d="M90.8659 26.9978C89.3217 26.9978 88.0821 25.7036 88.0821 24.1195V16.4664L86.7771 17.6266C85.7332 18.5414 84.189 18.5414 83.1234 17.6266L81.8184 16.4664V24.1195C81.8184 25.7036 80.557 26.9978 79.0129 26.9978C77.4687 26.9978 76.2073 25.7036 76.2073 24.1195V10.219C76.2073 8.63481 77.4687 7.3407 79.0129 7.3407C79.6871 7.3407 80.3178 7.58613 80.8397 8.03238L84.9503 11.647L89.039 8.03238C90.2134 7.00601 91.9751 7.13989 92.9973 8.34475C93.4322 8.85793 93.6715 9.52729 93.6715 10.219V24.1195C93.6932 25.7036 92.4318 26.9978 90.8659 26.9978Z" fill="#111212"/>
<path d="M72.2273 26.9978C70.6831 26.9978 69.4217 25.7037 69.4217 24.1195V21.6875L62.4404 13.0973H61.4835V21.2412H65.7027C67.2469 21.2859 68.4648 22.6023 68.4213 24.1864C68.3778 25.7037 67.1816 26.9308 65.7027 26.9755H58.6779C57.1337 26.9755 55.894 25.6814 55.894 24.0972V10.219C55.894 8.63483 57.1555 7.36304 58.6779 7.36304H63.7671C64.5935 7.36304 65.3982 7.74234 65.9202 8.3894L74.3804 18.8092C74.7936 19.3224 75.0329 19.9694 75.0329 20.6388V24.1195C75.0329 25.7037 73.7932 26.9978 72.2273 26.9978Z" fill="#111212"/>
<path d="M111.201 26.9978C109.657 26.9978 108.395 25.7037 108.395 24.1195V21.6875L101.414 13.0973H100.435V21.2412H104.655C106.199 21.2859 107.417 22.6023 107.373 24.1864C107.33 25.7037 106.134 26.9308 104.655 26.9755H97.6515C96.1074 26.9755 94.8459 25.6814 94.8459 24.0972V10.219C94.8459 8.63483 96.1074 7.36304 97.6515 7.36304H102.741C103.567 7.36304 104.35 7.74234 104.894 8.3894L113.354 18.8092C113.767 19.3224 114.007 19.9694 114.007 20.6388V24.1195C114.007 25.726 112.745 26.9978 111.201 26.9978Z" fill="#111212"/>
<path d="M61.3529 0.356986C61.1571 0.178488 60.9397 0.0446147 60.6787 -9.67691e-06C60.3524 -0.0446341 60.0262 0.178488 59.8087 0.334673C59.5912 0.490859 59.1563 0.892478 58.9823 1.04866C58.8083 1.20485 58.3733 1.2941 57.6556 1.74034C56.9379 2.18659 54.1541 4.01619 54.1541 4.01619H54.8718L51.6312 5.73423H51.9575L51.5007 6.09122C51.7617 6.15816 52.0227 6.11353 52.2619 5.97966V6.09122C52.2619 6.09122 56.1115 4.52937 56.8509 4.93099L56.3942 5.06486C56.4377 5.06486 57.1554 5.10949 57.1554 5.10949C57.1989 5.42186 57.3729 5.71192 57.6339 5.8681C58.0688 6.15816 58.0906 6.33666 58.0906 6.33666C58.0906 6.33666 57.8731 6.42591 57.8731 6.55978C58.2863 6.42591 58.7213 6.42591 59.1128 6.55978C59.1128 6.55978 59.091 6.42591 58.7865 6.33666C58.4821 6.20278 58.2211 6.00197 58.0253 5.71192C57.8513 5.46648 57.7861 5.15411 57.8948 4.86405C58.0036 4.57399 58.3733 4.41781 59.1345 4.01619C60.0262 3.54763 60.2437 3.19064 60.3524 2.90058C60.4612 2.61052 60.6787 2.07503 60.7657 1.80728C60.8527 1.56184 61.0049 1.36103 61.2006 1.18254C61.4399 1.04866 61.7009 0.937103 61.9401 0.847854C61.9836 0.870166 61.5051 0.468547 61.3529 0.356986Z" fill="#111212"/>
</g>
<defs>
<clipPath id="clip0_178_799">
<rect width="114" height="27" fill="white"/>
</clipPath>
</defs>
</svg>

<svg width="114" height="27" fill="none" xmlns="http://www.w3.org/2000/svg"><g clip-path="url(#a)" fill="#111212"><path d="M2.806 26.998C1.26 26.998 0 25.704 0 24.119v-13.9c0-1.584 1.261-2.856 2.806-2.856 1.544 0 2.805 1.294 2.805 2.878v13.9c-.022 1.563-1.261 2.857-2.805 2.857Zm11.853 0c-.827 0-1.631-.38-2.153-1.027L6.85 19.032a2.923 2.923 0 0 1 0-3.681l5.655-6.962c1-1.227 2.762-1.383 3.936-.379s1.349 2.834.37 4.039l-4.154 5.131 4.154 5.11c.979 1.227.826 3.034-.37 4.038-.5.424-1.13.67-1.783.67Zm18.617 0H21.422c-1.544 0-2.805-1.294-2.805-2.879v-13.9c0-1.584 1.261-2.878 2.805-2.878 1.545 0 2.806 1.294 2.806 2.878v11.022h6.264V10.22c0-1.584 1.261-2.878 2.805-2.878 1.545 0 2.806 1.294 2.806 2.878v13.9c-.022 1.585-1.283 2.879-2.828 2.879Zm18.638 0H40.061c-1.544-.045-2.762-1.361-2.719-2.945.044-1.518 1.24-2.745 2.719-2.79h9.047v-.156l-9.83-2.878c-1.196-.357-2.023-1.473-2.023-2.767V10.22c0-1.584 1.262-2.856 2.806-2.856h11.853c1.544 0 2.805 1.294 2.805 2.878 0 1.585-1.26 2.879-2.805 2.879h-9.047v.178l9.83 2.878c1.196.357 2.022 1.473 2.022 2.767v5.199c0 1.584-1.26 2.856-2.805 2.856Zm38.952 0c-1.544 0-2.784-1.294-2.784-2.879v-7.653l-1.305 1.16c-1.044.915-2.588.915-3.654 0l-1.305-1.16v7.653c0 1.585-1.261 2.879-2.805 2.879-1.544 0-2.806-1.294-2.806-2.879v-13.9c0-1.584 1.262-2.878 2.806-2.878.674 0 1.305.245 1.827.691l4.11 3.615 4.089-3.615c1.174-1.026 2.936-.892 3.958.313.435.513.674 1.182.674 1.874v13.9c.022 1.585-1.24 2.879-2.805 2.879Zm-18.639 0c-1.544 0-2.805-1.294-2.805-2.879v-2.431l-6.982-8.59h-.956v8.143h4.219c1.544.045 2.762 1.361 2.718 2.945-.043 1.518-1.24 2.745-2.718 2.79h-7.025c-1.544 0-2.784-1.295-2.784-2.879V10.22c0-1.584 1.262-2.856 2.784-2.856h5.09c.826 0 1.63.38 2.152 1.026l8.46 10.42a2.93 2.93 0 0 1 .653 1.83v3.48c0 1.585-1.24 2.879-2.806 2.879Zm38.974 0c-1.544 0-2.806-1.294-2.806-2.879v-2.431l-6.981-8.59h-.979v8.143h4.22c1.544.045 2.762 1.361 2.718 2.945-.043 1.518-1.239 2.745-2.718 2.79h-7.004c-1.544 0-2.805-1.295-2.805-2.879V10.22c0-1.584 1.261-2.856 2.805-2.856h5.09c.826 0 1.609.38 2.153 1.026l8.46 10.42c.413.513.653 1.16.653 1.83v3.48c0 1.607-1.262 2.879-2.806 2.879ZM61.353.357C61.157.178 60.94.045 60.679 0c-.327-.045-.653.178-.87.335-.218.156-.653.557-.827.714-.174.156-.609.245-1.326.691-.718.447-3.502 2.276-3.502 2.276h.718l-3.24 1.718h.326l-.457.357c.26.067.522.023.76-.111v.111s3.85-1.562 4.59-1.16l-.457.134c.044 0 .761.044.761.044.044.313.218.603.479.76.435.29.457.468.457.468s-.218.089-.218.223a1.963 1.963 0 0 1 1.24 0s-.022-.134-.327-.223a1.74 1.74 0 0 1-.76-.625.91.91 0 0 1-.131-.848c.109-.29.478-.446 1.24-.848.891-.468 1.109-.825 1.217-1.115.11-.29.327-.826.414-1.094a1.54 1.54 0 0 1 .435-.624c.239-.134.5-.246.74-.335.043.022-.436-.38-.588-.491Z"/></g><defs><clipPath id="a"><path fill="#fff" d="M0 0h114v27H0z"/></clipPath></defs></svg>
